assets/icons/traton/home_inactive.svg

<svg xmlns="http://www.w3.org/2000/svg" width="32" height="32" viewBox="0 0 32 32" fill="none">
<path d="M6.65799 10.8902L6.01789 11.2094V26.0107H12.013V17.0591H12.8249L14.8135 19.0483H14.0114V28H4.01952V9.9795L5.17287 9.40459L6.65799 10.8902ZM20.0065 24.243V26.0107H21.7736L23.7622 28H18.0081V22.244L20.0065 24.243ZM27.9805 26.5769L26.5695 27.9883L4 5.41142L5.41194 4L27.9805 26.5769ZM28 9.9795V23.7755L26.0016 21.7765V11.2094L16.0098 6.23621L12.3077 8.07809L10.8226 6.59248L16.0098 4.01171L28 9.9795Z" fill="#001D21" />
</svg>

<svg xmlns="http://www.w3.org/2000/svg" fill="none" viewBox="0 0 32 32"><path fill="#001d21" d="m6.7 10.9-.7.3V26h6v-9h.8l2 2H14v9H4V10l1.2-.6zM20 24.2V26h1.8l2 2H18v-5.8zm8 2.4L26.6 28 4 5.4 5.4 4zM28 10v13.8l-2-2V11.2l-10-5-3.7 1.9-1.5-1.5L16 4z"/></svg>
